svg/u1f9d0.svg

<svg viewBox="0 0 128 128" xmlns="http://www.w3.org/2000/svg">
  <defs>
    <radialGradient id="face_1_" cx="63.6" cy="-62.8999" gradientTransform="matrix(1 0 0 -1 0 0)" gradientUnits="userSpaceOnUse" r="56.9597">
      <stop offset="0.5" stop-color="#FDE030"/>
      <stop offset="0.9188" stop-color="#F7C02B"/>
      <stop offset="1" stop-color="#F4A223"/>
    </radialGradient>
  </defs>
  <path id="face_29_" d="M63.6,118.8 C35.7,118.8 5.6,101.3 5.6,62.9 C5.6,24.5 35.7,7 63.6,7 C79.1,7 93.4,12.1 104,21.4 C115.5,31.6 121.6,46 121.6,62.9 C121.6,79.8 115.5,94.1 104,104.3 C93.4,113.6 79,118.8 63.6,118.8 Z" fill="url(#face_1_)"/>
  <path d="M111.49,29.67 C116.82,38.27 119.6,48.51 119.6,59.9 C119.6,76.8 113.5,91.1 102,101.3 C91.4,110.6 77,115.8 61.6,115.8 C43.54,115.8 24.56,108.45 13.42,92.86 C24.18,110.52 44.41,118.8 63.6,118.8 C79,118.8 93.4,113.6 104,104.3 C115.5,94.1 121.6,79.8 121.6,62.9 C121.6,50.16 118.13,38.84 111.49,29.67 Z" fill="#EB8F00"/>
  <path id="right0-eyebrow_2_" d="M74.3,24.5 C75.2,23.7 76.1,23 77.1,22.3 C78.1,21.6 79.2,21.1 80.2,20.5 C82.4,19.5 84.8,18.5 87.7,18.4 C88.4,18.3 89.1,18.5 89.9,18.5 C90.6,18.5 91.4,18.8 92.1,19 C92.3,19.1 92.5,19.1 92.6,19.2 L93.1,19.5 L94.1,20 C94.7,20.4 95.3,20.9 95.9,21.4 C97,22.4 97.7,23.7 98.3,24.9 C98.6,25.5 98.8,26.1 99,26.7 C99.2,27.3 99.3,27.9 99.4,28.3 L99.5,28.6 C99.7,29.8 98.9,31 97.7,31.2 C96.7,31.4 95.8,30.9 95.3,30.1 C95,29.5 94.7,29 94.5,28.6 C94.3,28.2 94,27.8 93.8,27.4 C93.3,26.7 92.7,26.1 92.1,25.6 C92,25.5 91.8,25.4 91.6,25.3 C91.4,25.2 91.3,25.1 91.2,25 C91,24.9 90.9,24.9 90.7,24.8 L90.5,24.7 C90.4,24.7 90.3,24.7 90.2,24.7 C89.5,24.5 88.8,24.4 88,24.5 C86.4,24.5 84.5,25.1 82.6,25.8 C81.7,26.2 80.7,26.6 79.8,27 C78.9,27.5 77.9,27.9 76.9,28.3 L76.7,28.4 C75.5,28.9 74.2,28.3 73.8,27.2 C73.3,26.2 73.6,25.1 74.3,24.5 L74.3,24.5 Z" fill="#422B0D"/>
  <path id="left-eyebrow_3_" d="M45.6,38.5 C44.8,38.7 44.3,38.8 43.6,38.8 C43,38.8 42.3,38.9 41.7,38.8 C40.4,38.8 39.1,38.6 37.9,38.2 C35.9,37.7 33.9,37.4 32.2,37.4 C31.4,37.4 30.6,37.5 30,37.7 C29.4,37.9 28.9,38.2 28.4,38.7 C27.4,39.7 26.4,41.5 25.4,43.3 L25.4,43.3 C24.8,44.4 23.4,44.8 22.3,44.2 C21.4,43.7 21,42.7 21.1,41.8 C21.3,40.7 21.6,39.5 22,38.3 C22.5,37.1 23,35.9 24,34.7 C25,33.5 26.3,32.5 27.8,32 C29.3,31.5 30.7,31.3 32.1,31.3 C34.8,31.4 37.1,32.1 39.3,32.9 C40.2,33.2 41.1,33.5 42,33.7 C42.5,33.8 42.9,33.9 43.4,33.9 C43.8,33.9 44.4,34 44.7,34 L45.1,34 C46.3,34 47.3,35.1 47.2,36.3 C47.3,37.5 46.6,38.3 45.6,38.5 Z" fill="#422B0D"/>
  <path id="mouth_106_" d="M44,91.3 C45.8,89.3 50.6,87 57.3,87.1 C66.2,87.3 71,91.3 71,91.3 C73.9,93.7 72.6,97.4 69.5,97.1 C64.5,96.5 64.8,95.6 55.8,95.4 C49.3,95.3 46.2,96.3 45.9,96.3 C44.1,96.4 43.4,95.7 43.1,94.5 C42.8,93.5 43.1,92.2 44,91.3 Z" fill="#422B0D"/>
  <path id="right-eye_21_" d="M82.3,43.8 C86.7,43.8 90.7,47.5 90.7,53.7 C90.7,59.9 86.7,63.6 82.3,63.6 C77.9,63.6 73.9,59.9 73.9,53.7 C73.9,47.5 77.9,43.8 82.3,43.8 Z" fill="#422B0D"/>
  <path id="left-eye_27_" d="M37.2,45.5 C33,45.5 29.2,49 29.2,54.9 C29.2,60.8 33,64.3 37.2,64.3 C41.4,64.3 45.2,60.8 45.2,54.9 C45.2,49 41.4,45.5 37.2,45.5 Z" fill="#422B0D"/>
  <path d="M81.37,48.35 L81.37,48.35 C80.34,47.63 78.79,47.86 77.79,49.3 C76.79,50.75 77.12,52.27 78.15,52.99 L78.15,52.99 C79.18,53.71 80.73,53.48 81.73,52.04 C82.74,50.59 82.4,49.06 81.37,48.35 Z" fill="#896024"/>
  <path d="M106.5,49.9 L100.9,49.9 L100.9,58.9 L106.5,58.9 C109.2,58.9 111.9,57.2 111.9,54.6 L111.9,54.2 C111.9,51.5 109.2,49.9 106.5,49.9 Z M106,57.6 C104.1,57.6 102.6,56.1 102.6,54.3 C102.6,52.5 104.1,51 106,51 C107.9,51 109.4,52.5 109.4,54.3 C109.4,56.1 107.9,57.6 106,57.6 Z" fill="#404040"/>
  <path d="M106.1,70.8 L106.1,70.8 C105.8,70.8 105.5,70.6 105.5,70.3 L105.5,65.7 C105.5,65.4 105.7,65.2 106,65.2 L106.1,65.2 C106.4,65.2 106.6,65.4 106.6,65.7 L106.6,70.3 C106.6,70.5 106.4,70.8 106.1,70.8 Z" fill="#404040"/>
  <path d="M106.1,78.4 L106.1,78.4 C105.8,78.4 105.5,78.2 105.5,77.9 L105.5,73.3 C105.5,73 105.7,72.8 106,72.8 L106.1,72.8 C106.4,72.8 106.6,73 106.6,73.3 L106.6,77.9 C106.6,78.2 106.4,78.4 106.1,78.4 Z" fill="#404040"/>
  <path d="M106.1,86.1 L106.1,86.1 C105.8,86.1 105.5,85.9 105.5,85.6 L105.5,81 C105.5,80.7 105.7,80.5 106,80.5 L106.1,80.5 C106.4,80.5 106.6,80.7 106.6,81 L106.6,85.6 C106.6,85.9 106.4,86.1 106.1,86.1 Z" fill="#404040"/>
  <path d="M106.1,93.8 L106.1,93.8 C105.8,93.8 105.5,93.6 105.5,93.3 L105.5,88.7 C105.5,88.4 105.7,88.2 106,88.2 L106.1,88.2 C106.4,88.2 106.6,88.4 106.6,88.7 L106.6,93.3 C106.6,93.6 106.4,93.8 106.1,93.8 Z" fill="#404040"/>
  <path d="M106.1,101.5 L106.1,101.5 C105.8,101.5 105.5,101.3 105.5,101 L105.5,96.4 C105.5,96.1 105.7,95.9 106,95.9 L106.1,95.9 C106.4,95.9 106.6,96.1 106.6,96.4 L106.6,101 C106.6,101.3 106.4,101.5 106.1,101.5 Z" fill="#404040"/>
  <path d="M106.1,109.2 L106.1,109.2 C105.8,109.2 105.5,109 105.5,108.7 L105.5,104.1 C105.5,103.8 105.7,103.6 106,103.6 L106.1,103.6 C106.4,103.6 106.6,103.8 106.6,104.1 L106.6,108.7 C106.6,109 106.4,109.2 106.1,109.2 Z" fill="#404040"/>
  <path d="M106.1,116.9 L106.1,116.9 C105.8,116.9 105.5,116.7 105.5,116.4 L105.5,111.8 C105.5,111.5 105.7,111.3 106,111.3 L106.1,111.3 C106.4,111.3 106.6,111.5 106.6,111.8 L106.6,116.4 C106.6,116.7 106.4,116.9 106.1,116.9 Z" fill="#404040"/>
  <path d="M106.1,62.7 L106.1,62.7 C105.8,62.7 105.5,62.5 105.5,62.2 L105.5,57.6 C105.5,57.3 105.7,57.1 106,57.1 L106.1,57.1 C106.4,57.1 106.6,57.3 106.6,57.6 L106.6,62.2 C106.6,62.4 106.4,62.7 106.1,62.7 Z" fill="#404040"/>
  <path d="M109.2,64.1 Q109.2,65.384 108.292,66.292 Q107.384,67.2 106.1,67.2 Q103,67.2 103,64.1 Q103,61 106.1,61 Q107.384,61 108.292,61.908 Q109.2,62.816 109.2,64.1 Z M108.2,64.1 Q108.2,62 106.1,62 Q105.23,62 104.615,62.615 Q104,63.23 104,64.1 Q104,64.97 104.615,65.585 Q105.23,66.2 106.1,66.2 Q106.97,66.2 107.585,65.585 Q108.2,64.97 108.2,64.1 Z" fill="#404040"/>
  <path d="M109.2,71.8 Q109.2,73.084 108.292,73.992 Q107.384,74.9 106.1,74.9 Q104.816,74.9 103.908,73.992 Q103,73.084 103,71.8 Q103,70.516 103.908,69.608 Q104.816,68.7 106.1,68.7 Q107.384,68.7 108.292,69.608 Q109.2,70.516 109.2,71.8 Z M108.2,71.8 Q108.2,69.7 106.1,69.7 Q104,69.7 104,71.8 Q104,72.67 104.615,73.285 Q105.23,73.9 106.1,73.9 Q106.97,73.9 107.585,73.285 Q108.2,72.67 108.2,71.8 Z" fill="#404040"/>
  <path d="M109.2,79.4 Q109.2,80.684 108.292,81.592 Q107.384,82.5 106.1,82.5 Q103,82.5 103,79.4 Q103,76.3 106.1,76.3 Q107.384,76.3 108.292,77.208 Q109.2,78.116 109.2,79.4 Z M108.2,79.4 Q108.2,77.3 106.1,77.3 Q104,77.3 104,79.4 Q104,81.5 106.1,81.5 Q106.97,81.5 107.585,80.885 Q108.2,80.27 108.2,79.4 Z" fill="#404040"/>
  <path d="M109.2,87.1 Q109.2,88.384 108.292,89.292 Q107.384,90.2 106.1,90.2 Q103,90.2 103,87.1 Q103,84 106.1,84 Q107.384,84 108.292,84.908 Q109.2,85.816 109.2,87.1 Z M108.2,87.1 Q108.2,85 106.1,85 Q104,85 104,87.1 Q104,89.2 106.1,89.2 Q106.97,89.2 107.585,88.585 Q108.2,87.97 108.2,87.1 Z" fill="#404040"/>
  <path d="M109.2,94.7 Q109.2,95.984 108.292,96.892 Q107.384,97.8 106.1,97.8 Q104.816,97.8 103.908,96.892 Q103,95.984 103,94.7 Q103,93.416 103.908,92.508 Q104.816,91.6 106.1,91.6 Q109.2,91.6 109.2,94.7 Z M108.2,94.7 Q108.2,92.6 106.1,92.6 Q104,92.6 104,94.7 Q104,95.57 104.615,96.185 Q105.23,96.8 106.1,96.8 Q106.97,96.8 107.585,96.185 Q108.2,95.57 108.2,94.7 Z" fill="#404040"/>
  <path d="M109.2,102.4 Q109.2,103.684 108.292,104.592 Q107.384,105.5 106.1,105.5 Q103,105.5 103,102.4 Q103,99.3 106.1,99.3 Q107.384,99.3 108.292,100.208 Q109.2,101.116 109.2,102.4 Z M108.2,102.4 Q108.2,101.53 107.585,100.915 Q106.97,100.3 106.1,100.3 Q104,100.3 104,102.4 Q104,104.5 106.1,104.5 Q106.97,104.5 107.585,103.885 Q108.2,103.27 108.2,102.4 Z" fill="#404040"/>
  <path d="M109.2,110 Q109.2,111.284 108.292,112.192 Q107.384,113.1 106.1,113.1 Q104.816,113.1 103.908,112.192 Q103,111.284 103,110 Q103,106.9 106.1,106.9 Q107.384,106.9 108.292,107.808 Q109.2,108.716 109.2,110 Z M108.2,110 Q108.2,107.9 106.1,107.9 Q105.23,107.9 104.615,108.515 Q104,109.13 104,110 Q104,112.1 106.1,112.1 Q106.97,112.1 107.585,111.485 Q108.2,110.87 108.2,110 Z" fill="#404040"/>
  <path d="M109.2,117.7 Q109.2,118.984 108.292,119.892 Q107.384,120.8 106.1,120.8 Q103,120.8 103,117.7 Q103,114.6 106.1,114.6 Q109.2,114.6 109.2,117.7 Z M108.2,117.7 Q108.2,115.6 106.1,115.6 Q104,115.6 104,117.7 Q104,119.8 106.1,119.8 Q106.97,119.8 107.585,119.185 Q108.2,118.57 108.2,117.7 Z" fill="#404040"/>
  <path d="M100.2,53.7 A20.6 20.6 0 1 1 59,53.7 A20.6 20.6 0 1 1 100.2,53.7 Z" fill="#CCCCCC" opacity="0.5"/>
  <path d="M101.95,53.7 Q101.95,62.958 95.404,69.504 Q88.858,76.05 79.6,76.05 Q70.342,76.05 63.796,69.504 Q57.25,62.958 57.25,53.7 Q57.25,44.442 63.796,37.896 Q70.342,31.35 79.6,31.35 Q88.858,31.35 95.404,37.896 Q101.95,44.442 101.95,53.7 Z M98.45,53.7 Q98.45,45.892 92.929,40.371 Q87.408,34.85 79.6,34.85 Q71.792,34.85 66.271,40.371 Q60.75,45.892 60.75,53.7 Q60.75,61.508 66.271,67.029 Q71.792,72.55 79.6,72.55 Q87.408,72.55 92.929,67.029 Q98.45,61.508 98.45,53.7 Z" fill="#404040"/>
  <path d="M94.8,52.5 C94.4,48.7 92.7,45.2 89.9,42.8 C87.1,40.4 83.5,39.1 79.9,39.1 C76.2,39.1 72.6,40.3 69.8,42.6 C67,44.9 65.2,48.4 64.9,52.2 C64.9,52.5 64.6,52.7 64.4,52.6 C64.2,52.6 64,52.4 64,52.1 C63.9,50.1 64.3,48 65.1,46.1 C65.9,44.2 67.1,42.5 68.6,41 C71.6,38.1 75.9,36.7 80,36.7 C84.2,36.7 88.3,38.3 91.3,41.2 C92.8,42.7 94,44.4 94.8,46.3 C95.6,48.2 95.9,50.3 95.8,52.3 C95.8,52.6 95.6,52.8 95.3,52.8 C95,52.9 94.8,52.7 94.8,52.5 Z" fill="#FFFFFF"/>
  <path d="M37.01,49.35 L37.01,49.35 C35.98,48.63 34.43,48.86 33.43,50.3 C32.43,51.74 32.76,53.27 33.79,53.99 L33.79,53.99 C34.82,54.71 36.37,54.48 37.37,53.04 C38.38,51.59 38.05,50.06 37.01,49.35 Z" fill="#896024"/>
</svg>

<svg viewBox="0 0 128 128" xmlns="http://www.w3.org/2000/svg">
  <radialGradient id="face_1_" cx="63.6" cy="-2088.8999" gradientTransform="matrix(1 0 0 -1 0 -2026)" gradientUnits="userSpaceOnUse" r="56.9597">
    <stop offset="0.5" stop-color="#FDE030"/>
    <stop offset="0.9188" stop-color="#F7C02B"/>
    <stop offset="1" stop-color="#F4A223"/>
  </radialGradient>
  <path id="face_29_" d="M63.6,118.8c-27.9,0-58-17.5-58-55.9S35.7,7,63.6,7c15.5,0,29.8,5.1,40.4,14.4 c11.5,10.2,17.6,24.6,17.6,41.5s-6.1,31.2-17.6,41.4C93.4,113.6,79,118.8,63.6,118.8z" fill="url(#face_1_)"/>
  <path d="M111.49,29.67c5.33,8.6,8.11,18.84,8.11,30.23c0,16.9-6.1,31.2-17.6,41.4 c-10.6,9.3-25,14.5-40.4,14.5c-18.06,0-37.04-7.35-48.18-22.94c10.76,17.66,30.99,25.94,50.18,25.94c15.4,0,29.8-5.2,40.4-14.5 c11.5-10.2,17.6-24.5,17.6-41.4C121.6,50.16,118.13,38.84,111.49,29.67z" fill="#EB8F00"/>
  <g id="monocle-face_2_">
    <g id="eyebrows_1_">
      <path id="right0-eyebrow_2_" d="M74.3,24.5c0.9-0.8,1.8-1.5,2.8-2.2s2.1-1.2,3.1-1.8c2.2-1,4.6-2,7.5-2.1 c0.7-0.1,1.4,0.1,2.2,0.1c0.7,0,1.5,0.3,2.2,0.5c0.2,0.1,0.4,0.1,0.5,0.2l0.5,0.3l1,0.5c0.6,0.4,1.2,0.9,1.8,1.4 c1.1,1,1.8,2.3,2.4,3.5c0.3,0.6,0.5,1.2,0.7,1.8c0.2,0.6,0.3,1.2,0.4,1.6l0.1,0.3c0.2,1.2-0.6,2.4-1.8,2.6c-1,0.2-1.9-0.3-2.4-1.1 c-0.3-0.6-0.6-1.1-0.8-1.5c-0.2-0.4-0.5-0.8-0.7-1.2c-0.5-0.7-1.1-1.3-1.7-1.8c-0.1-0.1-0.3-0.2-0.5-0.3c-0.2-0.1-0.3-0.2-0.4-0.3 c-0.2-0.1-0.3-0.1-0.5-0.2l-0.2-0.1c-0.1,0-0.2,0-0.3,0c-0.7-0.2-1.4-0.3-2.2-0.2c-1.6,0-3.5,0.6-5.4,1.3 c-0.9,0.4-1.9,0.8-2.8,1.2c-0.9,0.5-1.9,0.9-2.9,1.3l-0.2,0.1c-1.2,0.5-2.5-0.1-2.9-1.2C73.3,26.2,73.6,25.1,74.3,24.5L74.3,24.5z " fill="#422B0D"/>
      <path id="left-eyebrow_3_" d="M45.6,38.5c-0.8,0.2-1.3,0.3-2,0.3c-0.6,0-1.3,0.1-1.9,0 c-1.3,0-2.6-0.2-3.8-0.6c-2-0.5-4-0.8-5.7-0.8c-0.8,0-1.6,0.1-2.2,0.3s-1.1,0.5-1.6,1c-1,1-2,2.8-3,4.6l0,0 c-0.6,1.1-2,1.5-3.1,0.9c-0.9-0.5-1.3-1.5-1.2-2.4c0.2-1.1,0.5-2.3,0.9-3.5c0.5-1.2,1-2.4,2-3.6c1-1.2,2.3-2.2,3.8-2.7 s2.9-0.7,4.3-0.7c2.7,0.1,5,0.8,7.2,1.6c0.9,0.3,1.8,0.6,2.7,0.8c0.5,0.1,0.9,0.2,1.4,0.2c0.4,0,1,0.1,1.3,0.1h0.4 c1.2,0,2.2,1.1,2.1,2.3C47.3,37.5,46.6,38.3,45.6,38.5z" fill="#422B0D"/>
    </g>
    <path id="mouth_106_" d="M44,91.3c1.8-2,6.6-4.3,13.3-4.2c8.9,0.2,13.7,4.2,13.7,4.2 c2.9,2.4,1.6,6.1-1.5,5.8c-5-0.6-4.7-1.5-13.7-1.7c-6.5-0.1-9.6,0.9-9.9,0.9c-1.8,0.1-2.5-0.6-2.8-1.8C42.8,93.5,43.1,92.2,44,91.3 z" fill="#422B0D"/>
    <g id="eyes_92_">
      <path id="right-eye_21_" d="M82.3,43.8c4.4,0,8.4,3.7,8.4,9.9s-4,9.9-8.4,9.9s-8.4-3.7-8.4-9.9 S77.9,43.8,82.3,43.8z" fill="#422B0D"/>
      <path id="left-eye_27_" d="M37.2,45.5c-4.2,0-8,3.5-8,9.4s3.8,9.4,8,9.4s8-3.5,8-9.4S41.4,45.5,37.2,45.5z" fill="#422B0D"/>
      <g id="peepers_48_">
        <path d="M81.37,48.35L81.37,48.35c-1.03-0.72-2.58-0.49-3.58,0.95c-1,1.45-0.67,2.97,0.36,3.69l0,0 c1.03,0.72,2.58,0.49,3.58-0.95C82.74,50.59,82.4,49.06,81.37,48.35z" fill="#896024"/>
      </g>
    </g>
    <g id="prop_1_">
      <path d="M106.5,49.9h-5.6v9h5.6c2.7,0,5.4-1.7,5.4-4.3v-0.4C111.9,51.5,109.2,49.9,106.5,49.9z M106,57.6 c-1.9,0-3.4-1.5-3.4-3.3s1.5-3.3,3.4-3.3s3.4,1.5,3.4,3.3S107.9,57.6,106,57.6z" fill="#404040"/>
      <path d="M106.1,70.8L106.1,70.8c-0.3,0-0.6-0.2-0.6-0.5v-4.6c0-0.3,0.2-0.5,0.5-0.5h0.1 c0.3,0,0.5,0.2,0.5,0.5v4.6C106.6,70.5,106.4,70.8,106.1,70.8z" fill="#404040"/>
      <path d="M106.1,78.4L106.1,78.4c-0.3,0-0.6-0.2-0.6-0.5v-4.6c0-0.3,0.2-0.5,0.5-0.5h0.1 c0.3,0,0.5,0.2,0.5,0.5v4.6C106.6,78.2,106.4,78.4,106.1,78.4z" fill="#404040"/>
      <path d="M106.1,86.1L106.1,86.1c-0.3,0-0.6-0.2-0.6-0.5V81c0-0.3,0.2-0.5,0.5-0.5h0.1 c0.3,0,0.5,0.2,0.5,0.5v4.6C106.6,85.9,106.4,86.1,106.1,86.1z" fill="#404040"/>
      <path d="M106.1,93.8L106.1,93.8c-0.3,0-0.6-0.2-0.6-0.5v-4.6c0-0.3,0.2-0.5,0.5-0.5h0.1 c0.3,0,0.5,0.2,0.5,0.5v4.6C106.6,93.6,106.4,93.8,106.1,93.8z" fill="#404040"/>
      <path d="M106.1,101.5L106.1,101.5c-0.3,0-0.6-0.2-0.6-0.5v-4.6c0-0.3,0.2-0.5,0.5-0.5h0.1 c0.3,0,0.5,0.2,0.5,0.5v4.6C106.6,101.3,106.4,101.5,106.1,101.5z" fill="#404040"/>
      <path d="M106.1,109.2L106.1,109.2c-0.3,0-0.6-0.2-0.6-0.5v-4.6c0-0.3,0.2-0.5,0.5-0.5h0.1 c0.3,0,0.5,0.2,0.5,0.5v4.6C106.6,109,106.4,109.2,106.1,109.2z" fill="#404040"/>
      <path d="M106.1,116.9L106.1,116.9c-0.3,0-0.6-0.2-0.6-0.5v-4.6c0-0.3,0.2-0.5,0.5-0.5h0.1 c0.3,0,0.5,0.2,0.5,0.5v4.6C106.6,116.7,106.4,116.9,106.1,116.9z" fill="#404040"/>
      <path d="M106.1,62.7L106.1,62.7c-0.3,0-0.6-0.2-0.6-0.5v-4.6c0-0.3,0.2-0.5,0.5-0.5h0.1 c0.3,0,0.5,0.2,0.5,0.5v4.6C106.6,62.4,106.4,62.7,106.1,62.7z" fill="#404040"/>
      <circle cx="106.1" cy="64.1" r="2.6" fill="none" stroke="#404040" stroke-miterlimit="10"/>
      <circle cx="106.1" cy="71.8" r="2.6" fill="none" stroke="#404040" stroke-miterlimit="10"/>
      <circle cx="106.1" cy="79.4" r="2.6" fill="none" stroke="#404040" stroke-miterlimit="10"/>
      <circle cx="106.1" cy="87.1" r="2.6" fill="none" stroke="#404040" stroke-miterlimit="10"/>
      <circle cx="106.1" cy="94.7" r="2.6" fill="none" stroke="#404040" stroke-miterlimit="10"/>
      <circle cx="106.1" cy="102.4" r="2.6" fill="none" stroke="#404040" stroke-miterlimit="10"/>
      <circle cx="106.1" cy="110" r="2.6" fill="none" stroke="#404040" stroke-miterlimit="10"/>
      <circle cx="106.1" cy="117.7" r="2.6" fill="none" stroke="#404040" stroke-miterlimit="10"/>
      <circle cx="79.6" cy="53.7" r="20.6" fill="#CCCCCC" fill-opacity="0.5" stroke="#404040" stroke-width="3.5" stroke-miterlimit="10"/>
      <path d="M94.8,52.5c-0.4-3.8-2.1-7.3-4.9-9.7s-6.4-3.7-10-3.7c-3.7,0-7.3,1.2-10.1,3.5 c-2.8,2.3-4.6,5.8-4.9,9.6c0,0.3-0.3,0.5-0.5,0.4c-0.2,0-0.4-0.2-0.4-0.5c-0.1-2,0.3-4.1,1.1-6c0.8-1.9,2-3.6,3.5-5.1 c3-2.9,7.3-4.3,11.4-4.3c4.2,0,8.3,1.6,11.3,4.5c1.5,1.5,2.7,3.2,3.5,5.1c0.8,1.9,1.1,4,1,6c0,0.3-0.2,0.5-0.5,0.5 C95,52.9,94.8,52.7,94.8,52.5z" fill="#FFFFFF"/>
    </g>
  </g>
  <g id="peepers_49_">
    <path d="M37.01,49.35L37.01,49.35c-1.03-0.72-2.58-0.49-3.58,0.95s-0.67,2.97,0.36,3.69l0,0 c1.03,0.72,2.58,0.49,3.58-0.95C38.38,51.59,38.05,50.06,37.01,49.35z" fill="#896024"/>
  </g>
</svg>
